X:2
T:Dans Fisel
R:gavotte
D:Humdingers: Live in Oslo
O:Bretagne
Z:id:hn-gavotte-2
M:4/4
L:1/8
K:Bm
FB Bc dB e2 | dB cd B2 B2 :|
FB Bc dB e2 | d2 (3Bcd cB A2 |
FB Bc dB e2 | dB cd B2 B2 |
FB Bc dB e2 | dc Bd cB AE |
FB Bc dB e2 | dB cd B2 B2 ||

